src/assets/support27-7.svg

<svg width="633" height="633" fill="none" xmlns="http://www.w3.org/2000/svg"><circle cx="316.5" cy="316.5" r="316.5" fill="url(#paint0_linear_1064_2028)"/><path d="M423.752 273.057c-.571-33.081-10.742-59.224-30.135-77.666-32.321-30.515-78.047-28.424-79.568-28.328-32.796.095-58.748 9.886-77.286 29.184-26.237 27.473-28.899 65.403-28.994 77.096C194.841 281.708 186 297.013 186 314.6c0 18.632 9.791 34.603 24.051 42.588-.571 16.065 3.042 51.429 40.497 75.575-.761 4.468-.286 9.031 1.901 13.023 2.662 4.753 6.939 8.271 12.168 9.792l29.089 8.555a20.38 20.38 0 005.799.856c3.327 0 6.654-.856 9.696-2.472 4.753-2.566 8.271-6.939 9.792-12.168l.57-1.901c1.521-5.228.951-10.742-1.616-15.59-2.662-4.753-6.94-8.271-12.168-9.792l-2.282-.665c4.183.57 8.366 1.046 12.644 1.046 39.451 0 73.008-25.287 85.556-60.555.285 0 .476.095.666.095 24.336 0 44.204-21.58 44.204-48.197.095-17.967-9.221-33.557-22.815-41.733zM201.4 314.695c0-16.066 10.267-29.565 23.671-32.226v50.288c0 4.468.38 8.936 1.045 13.309.096.38 0 .76.096 1.14-13.975-2.281-24.812-15.97-24.812-32.511zm59.795 101.527c-1.331.76-2.377 1.901-3.518 2.947-27.473-18.252-32.226-43.064-32.416-56.943 1.616.19 3.232.571 4.943.571h.38c8.366 23.67 26.048 42.398 48.292 52.474l-2.091-.57c-5.324-1.616-10.837-1.046-15.59 1.521zm43.253 24.146c.666 1.14.761 2.566.38 3.802l-.57 1.901c-.38 1.331-1.236 2.377-2.472 3.042-1.14.666-2.566.761-3.802.381l-29.089-8.556c-1.331-.38-2.377-1.236-2.947-2.376a4.872 4.872 0 01-.381-3.803l.571-1.901c.38-1.331 1.236-2.377 2.471-3.042a5.16 5.16 0 012.377-.571c.475 0 .951.095 1.426.19l29.089 8.556c1.236.38 2.282 1.236 2.947 2.377zm87.268-107.706c0 41.637-33.938 75.575-75.575 75.575-34.033 0-64.072-22.816-73.008-55.517a76.515 76.515 0 01-2.662-20.058v-23.386l.38 1.236c43.254-13.594 62.932-37.169 72.723-54.661l1.046 1.616c11.217 17.206 27.853 42.873 77.096 48.767v26.428zm0-42.208c-40.402-5.419-53.711-25.192-64.168-41.447l-1.045-1.617c-3.137-4.848-8.366-7.509-14.07-7.224-5.798.285-10.742 3.612-13.403 8.745-7.225 14.165-23.481 33.177-58.464 45.345v-12.928c0-1.996.095-4.088.285-6.274 3.232-38.786 36.314-69.301 75.385-69.301 20.153 0 39.166 7.89 53.425 22.055 14.26 14.354 22.055 33.367 22.055 53.52v9.126zm-11.218-73.579c-17.301-17.111-40.116-26.522-64.357-26.522-44.49 0-82.229 32.987-89.454 76.525-1.046.095-2.187.19-3.232.381 1.14-13.88 5.703-40.782 24.526-60.46 15.495-16.161 37.74-24.336 66.449-24.431.38 0 40.972-1.902 68.54 24.146 15.21 14.354 23.195 34.983 24.811 60.84-.665-.095-1.236-.19-1.901-.19-2.852-18.823-11.598-36.409-25.382-50.289zm25.952 130.521a93.358 93.358 0 001.141-14.449v-50.193c13.499 2.757 23.671 16.16 23.671 32.226 0 16.541-10.837 30.23-24.812 32.416z" fill="#fff"/><defs><linearGradient id="paint0_linear_1064_2028" x1="-68.487" y1="381.809" x2="701.487" y2="388.191" gradientUnits="userSpaceOnUse"><stop stop-color="#024EC9"/><stop offset="1" stop-color="#3884FF"/></linearGradient></defs></svg>

<svg width="633" height="633" viewBox="0 0 633 633" fill="none" xmlns="http://www.w3.org/2000/svg">
<circle cx="316.5" cy="316.5" r="316.5" fill="url(#paint0_linear_1064_2028)"/>
<path d="M423.752 273.057C423.181 239.976 413.01 213.833 393.617 195.391C361.296 164.876 315.57 166.967 314.049 167.063C281.253 167.158 255.301 176.949 236.763 196.247C210.526 223.72 207.864 261.65 207.769 273.343C194.841 281.708 186 297.013 186 314.6C186 333.232 195.791 349.203 210.051 357.188C209.48 373.253 213.093 408.617 250.548 432.763C249.787 437.231 250.262 441.794 252.449 445.786C255.111 450.539 259.388 454.057 264.617 455.578L293.706 464.133C295.607 464.704 297.604 464.989 299.505 464.989C302.832 464.989 306.159 464.133 309.201 462.517C313.954 459.951 317.472 455.578 318.993 450.349L319.563 448.448C321.084 443.22 320.514 437.706 317.947 432.858C315.285 428.105 311.007 424.587 305.779 423.066L303.497 422.401C307.68 422.971 311.863 423.447 316.141 423.447C355.592 423.447 389.149 398.16 401.697 362.892C401.982 362.892 402.173 362.987 402.363 362.987C426.699 362.987 446.567 341.407 446.567 314.79C446.662 296.823 437.346 281.233 423.752 273.057ZM201.4 314.695C201.4 298.629 211.667 285.13 225.071 282.469V332.757C225.071 337.225 225.451 341.693 226.116 346.066C226.212 346.446 226.116 346.826 226.212 347.206C212.237 344.925 201.4 331.236 201.4 314.695ZM261.195 416.222C259.864 416.982 258.818 418.123 257.677 419.169C230.204 400.917 225.451 376.105 225.261 362.226C226.877 362.416 228.493 362.797 230.204 362.797C230.299 362.797 230.489 362.797 230.584 362.797C238.95 386.467 256.632 405.195 278.876 415.271L276.785 414.701C271.461 413.085 265.948 413.655 261.195 416.222ZM304.448 440.368C305.114 441.508 305.209 442.934 304.828 444.17L304.258 446.071C303.878 447.402 303.022 448.448 301.786 449.113C300.646 449.779 299.22 449.874 297.984 449.494L268.895 440.938C267.564 440.558 266.518 439.702 265.948 438.562C265.282 437.326 265.187 435.995 265.567 434.759L266.138 432.858C266.518 431.527 267.374 430.481 268.609 429.816C269.37 429.436 270.13 429.245 270.986 429.245C271.461 429.245 271.937 429.34 272.412 429.435L301.501 437.991C302.737 438.371 303.783 439.227 304.448 440.368ZM391.716 332.662C391.716 374.299 357.778 408.237 316.141 408.237C282.108 408.237 252.069 385.421 243.133 352.72C241.326 346.066 240.471 339.316 240.471 332.662V309.276L240.851 310.512C284.105 296.918 303.783 273.343 313.574 255.851L314.62 257.467C325.837 274.673 342.473 300.34 391.716 306.234V332.662ZM391.716 290.454C351.314 285.035 338.005 265.262 327.548 249.007L326.503 247.39C323.366 242.542 318.137 239.881 312.433 240.166C306.635 240.451 301.691 243.778 299.03 248.911C291.805 263.076 275.549 282.088 240.566 294.256V281.328C240.566 279.332 240.661 277.24 240.851 275.054C244.083 236.268 277.165 205.753 316.236 205.753C336.389 205.753 355.402 213.643 369.661 227.808C383.921 242.162 391.716 261.175 391.716 281.328V290.454ZM380.498 216.875C363.197 199.764 340.382 190.353 316.141 190.353C271.651 190.353 233.912 223.34 226.687 266.878C225.641 266.973 224.5 267.068 223.455 267.259C224.595 253.379 229.158 226.477 247.981 206.799C263.476 190.638 285.721 182.463 314.43 182.368C314.81 182.368 355.402 180.466 382.97 206.514C398.18 220.868 406.165 241.497 407.781 267.354C407.116 267.259 406.545 267.164 405.88 267.164C403.028 248.341 394.282 230.755 380.498 216.875ZM406.45 347.396C407.211 342.548 407.591 337.7 407.591 332.947V282.754C421.09 285.511 431.262 298.914 431.262 314.98C431.262 331.521 420.425 345.21 406.45 347.396Z" fill="white"/>
<defs>
<linearGradient id="paint0_linear_1064_2028" x1="-68.4868" y1="381.809" x2="701.487" y2="388.191" gradientUnits="userSpaceOnUse">
<stop stop-color="#024EC9"/>
<stop offset="1" stop-color="#3884FF"/>
</linearGradient>
</defs>
</svg>
